X:1
T:The Fountain
T:The Fountain
T:Edward S. Fogg
T:Leonidas Robinson, 1896
T:Public Domain Courtesy of the Cyber Hymnal™
C:Edward S. Fogg
Z:Public Domain
Z:Courtesy of the Cyber Hymnal™
%%score 1 2
L:1/8
Q:1/4=105
M:4/4
K:C
V:1 treble 
V:2 bass 
V:1
 [EG]2 | [EG]2 [Ec]2 [Ge]3 [EG] | ([FA][GB][GB])[FA] [EG]3 [EG] | [EG]2 [Ec]2 [Af]2 [Ge]2 | %4
w: 1.~There|is a foun- tain|flow- * * ing free, With|bright and crim- son|
w: 2.~On|Cal- vary’s brow the|Sav- * * ior bled, For|you, His life He|
w: 3.~Come,|sin- ner, come, your|sins * * con- fess, And|let this foun- tain|
w: 4.~I|come, O Lord, with|con- * * trite heart, I|all my sins for-|
 [Ed]6 [EG]2 | [EG]2 [Ec]2 [Ge]3 [EG] | ([FA][Ac][GB])[FA] [EG]3 [EG] | [EG]2 [Ec]2 [FB]2 [Fd]2 | %8
w: sheen; ’Twas|o- pened in King|Da- * * vid’s time, To|make the sin- ner|
w: gave; He|bore the sins of|all * * the world, And|from all sins doth|
w: roll; With|cleans- ing power the|crim- * * son tide Will|wash and make you|
w: sake; I|plead Thy prom- ise,|trust * * Thy Word, I|now my Sav- ior|
 [Ec]6 ||"^Refrain" [EG]2 | [Ge]3 [Fd] (3[Ec][DB][Ec] [Fd][Ec] | [FB]6 [FG]2 | %12
w: clean.||||
w: save.|This|foun- tain o- pened in Da- vid’s|time, Still|
w: whole.||||
w: take.||||
 [Gf]3 [Gf] [Ge]2 [Gd]2 | [Ge]6 [EG]2 | [Ge]3 [Fd] (3[Ec][DB][Ec] [Fd][Ge] | [Af]6 [Ge][Ad] | %16
w: ||||
w: flows with grace di-|vine; And|who- so- ev- er will en- ter|in, Shall be|
w: ||||
w: ||||
 [Bg]2 [Bf]2 [Ae]2 [Gd]2 | [Gc]6 |] %18
w: ||
w: saved and cleansed from|sin.|
w: ||
w: ||
V:2
 [C,C]2 | [C,C]2 [C,G,]2 [C,C]3 [C,C] | [F,C]3 [F,C] [C,C]3 [C,C] | [C,C]2 [C,G,]2 [C,C]2 [C,C]2 | %4
 [G,B,]6 [C,C]2 | [C,C]2 [C,G,]2 [C,C]3 [C,C] | [F,C]3 [F,C] [C,C]3 [C,C] | %7
 [C,C]2 [C,C]2 [G,D]2 [G,B,]2 | [C,C]6 || z2 | [C,C]3 [C,C] (3[C,C][C,C][C,C] [C,C][C,C] | %11
 ([G,D][G,D][G,D][G,D] [G,D]2) z2 | [G,B,]3 [G,B,] [G,C]2 [G,B,]2 | %13
 ([C,C][C,C][C,C][C,C] [C,C]2) z2 | [C,C]3 [C,C] (3[C,C][C,C][C,C] [C,C][C,C] | %15
 ([F,C][F,C][F,C][F,C] [D,D]2) [E,C][F,B,] | [G,,D]2 [G,,D]2 [A,,C]2 [B,,F]2 | [C,E]6 |] %18

